Natron/Resources/OpenColorIO-Configs/blender/config.ocio
# OpenColorIO configuration file for Blender
#
# Based on aces, nuke-default and spi configurations from OpenColorIO-Config
#
# Filmic Dynamic Range LUT configuration crafted by Troy James Sobotka with
# special thanks and feedback from Guillermo, Claudio Rocha, Bassam Kurdali,
# Eugenio Pignataro, Henri Hebeisen, Jason Clarke, Haarm-Peter Duiker, Thomas
# Mansencal, and Timothy Lottes.
#
# See ocio-license.txt for details.

ocio_profile_version: 1

search_path: "luts:filmic"
strictparsing: true
luma: [0.2126, 0.7152, 0.0722]

description: The default blender configuration, with a few more camera LUTs.
# based on commit 34389999b2da52786ffa39fc5cf018b817ca5e1d in blender.git
# https://git.blender.org/gitweb/gitweb.cgi/blender.git/commit/34389999b2da52786ffa39fc5cf018b817ca5e1d

roles:
  reference: Linear

  # Internal scene linear space
  scene_linear: Linear
  rendering: Linear

  # Default color space for byte image
  default_byte: sRGB

  # Default color space for float images
  default_float: Linear

  # Default color space sequencer is working in
  default_sequencer: sRGB

  # Color spaces for color picking and texture painting (not internally supported yet)
  color_picking: Raw
  texture_paint: Raw

  # Log spaces
  color_timing: lg10
  compositing_log: lgf

  # Non-color data
  data: Non-Color

displays:
  sRGB:
    - !<View> {name: Default, colorspace: sRGB}
    - !<View> {name: Filmic, colorspace: Filmic sRGB}
    - !<View> {name: RRT, colorspace: rrt_srgb}
    - !<View> {name: Film, colorspace: srgb8}
    - !<View> {name: Raw, colorspace: Raw}
    - !<View> {name: Log, colorspace: lg10}
    - !<View> {name: False Color, colorspace: False Color}
  DCI-P3:
    - !<View> {name: RRT, colorspace: rrt_p3dci}
    - !<View> {name: Film, colorspace: p3dci8}
    - !<View> {name: Raw, colorspace: Raw}
    - !<View> {name: Log, colorspace: adx10}
  Rec709:
    - !<View> {name: Default, colorspace: nuke_rec709}
    - !<View> {name: RRT, colorspace: rrt_rec709}
  XYZ:
    - !<View> {name: Default, colorspace: XYZ}
    - !<View> {name: RRT, colorspace: rrt_xyz}
    - !<View> {name: DCI, colorspace: dci_xyz}
    - !<View> {name: Raw, colorspace: Raw}
    - !<View> {name: Log, colorspace: adx10}
  None:
    - !<View> {name: Default, colorspace: Raw}

active_displays: [sRGB, DCIP3, Rec709, XYZ, None]
active_views: [Default, RRT, Raw, Log]

colorspaces:
  - !<ColorSpace>
    name: Linear
    family: linear
    equalitygroup:
    bitdepth: 32f
    description: |
      Rec. 709 (Full Range), Blender native linear space
    isdata: false
    allocation: lg2
    allocationvars: [-15, 6]

  - !<ColorSpace>
    name: Raw
    family: raw
    equalitygroup:
    bitdepth: 32f
    isdata: true
    allocation: uniform
    allocationvars: [0, 1]

  - !<ColorSpace>
    name: adx10
    family: display
    equalitygroup:
    bitdepth: 10ui
    description: |
      Film Scan, using the 10-bit Academy Density Encoding

    isdata: false
    allocation: uniform
    allocationvars: [0, 1]
    to_reference: !<GroupTransform>
      children:
        - !<FileTransform> {src: adx_adx10_to_cdd.spimtx}
        - !<FileTransform> {src: adx_cdd_to_cid.spimtx}
        - !<FileTransform> {src: adx_cid_to_rle.spi1d, interpolation: linear}
        - !<LogTransform> {base: 10, direction: inverse}
        - !<FileTransform> {src: adx_exp_to_aces.spimtx}
        - !<FileTransform> {src: rec709_to_aces.spimtx, interpolation: linear, direction: inverse}

  - !<ColorSpace>
    name: Linear ACES
    family: linear
    equalitygroup:
    bitdepth: 32f
    description: |
      ACES linear space
    isdata: false
    allocation: lg2
    allocationvars: [-8.5, 5]
    to_reference: !<FileTransform> {src: rec709_to_aces.spimtx, interpolation: linear, direction: inverse}

  - !<ColorSpace>
    name: rrt_srgb
    family: display
    equalitygroup:
    bitdepth: 32f
    isdata: false
    allocation: uniform
    allocationvars: [0, 1]
    from_reference: !<GroupTransform>
      children:
        - !<FileTransform> {src: rec709_to_aces.spimtx, interpolation: nearest}
        - !<AllocationTransform> {allocation: lg2, vars: [-8.5, 5]}
        - !<FileTransform> {src: rrt_ut33_sRGB.spi3d, interpolation: tetrahedral}

  - !<ColorSpace>
    name: nuke_rec709
    family: display
    equalitygroup:
    bitdepth: 32f
    description: |
      Rec. 709 (Full Range) Display Space
    isdata: false
    allocation: uniform
    allocationvars: [-0.125, 1.125]
    to_reference: !<GroupTransform>
      children:
        - !<FileTransform> {src: rec709.spi1d, interpolation: linear}

  - !<ColorSpace>
    name: rrt_rec709
    family: display
    equalitygroup:
    bitdepth: 32f
    isdata: false
    allocation: uniform
    allocationvars: [0, 1]
    from_reference: !<GroupTransform>
      children:
        - !<FileTransform> {src: rec709_to_aces.spimtx, interpolation: nearest}
        - !<AllocationTransform> {allocation: lg2, vars: [-8.5, 5]}
        - !<FileTransform> {src: rrt_ut33_rec709.spi3d, interpolation: tetrahedral}

  - !<ColorSpace>
    name: rrt_p3dci
    family: display
    equalitygroup:
    bitdepth: 32f
    isdata: false
    allocation: uniform
    allocationvars: [0, 1]
    from_reference: !<GroupTransform>
      children:
        - !<FileTransform> {src: rec709_to_aces.spimtx, interpolation: nearest}
        - !<AllocationTransform> {allocation: lg2, vars: [-8.5, 5]}
        - !<FileTransform> {src: rrt_ut33_p3dci.spi3d, interpolation: tetrahedral}

  - !<ColorSpace>
    name: XYZ
    family: linear
    equalitygroup:
    bitdepth: 32f
    isdata: false
    allocation: lg2
    allocationvars: [-8.5, 5]
    from_reference: !<GroupTransform>
      children:
        - !<FileTransform> {src: rec709_to_aces.spimtx, interpolation: linear}
        - !<FileTransform> {src: aces_to_xyz.spimtx, interpolation: linear}

  - !<ColorSpace>
    name: rrt_xyz
    family: display
    equalitygroup:
    bitdepth: 32f
    isdata: false
    allocation: uniform
    allocationvars: [0, 1]
    from_reference: !<GroupTransform>
      children:
        - !<FileTransform> {src: rec709_to_aces.spimtx, interpolation: nearest}
        - !<AllocationTransform> {allocation: lg2, vars: [-8.5, 5]}
        - !<FileTransform> {src: rrt_ut33_dcdm.spi3d, interpolation: tetrahedral}

  - !<ColorSpace>
    name: dci_xyz
    family: display
    equalitygroup:
    bitdepth: 16f
    description: |
      OpenDCP output LUT with DCI reference white and Gamma 2.6
    isdata: false
    allocation: uniform
    allocationvars: [0, 1]
    from_reference: !<GroupTransform>
      children:
        - !<FileTransform> {src: srgb_to_xyz.spimtx, interpolation: linear}
        - !<FileTransform> {src: dci_xyz.spi1d, interpolation: linear}

  - !<ColorSpace>
    name: lg10
    family: input
    equalitygroup:
    bitdepth: 10ui
    description: |
      conversion from film log
    isdata: false
    allocation: uniform
    to_reference: !<GroupTransform>
      children:
        - !<FileTransform> {src: lg10.spi1d, interpolation: nearest}

  - !<ColorSpace>
    name: lgf
    family: input
    equalitygroup: 
    bitdepth: 32f
    description: |
      lgf : conversion from film log
    isdata: false
    allocation: uniform
    allocationvars: [-0.25, 1.5]
    to_reference: !<FileTransform> {src: lgf.spi1d, interpolation: linear}

  - !<ColorSpace>
    name: srgb8
    family: display
    equalitygroup:
    bitdepth: 8ui
    description: |
      RGB display space for the sRGB standard.
    isdata: false
    allocation: uniform
    from_reference: !<GroupTransform>
      children:
        - !<ColorSpaceTransform> {src: Linear, dst: lg10}
        - !<FileTransform> {src: spi_ocio_srgb_test.spi3d, interpolation: linear}

  - !<ColorSpace>
    name: sRGB
    family:
    equalitygroup:
    bitdepth: 32f
    description: |
      Standard RGB Display Space
    isdata: false
    allocation: uniform
    allocationvars: [-0.125, 4.875]
    to_reference: !<FileTransform> {src: srgb.spi1d, interpolation: linear}
    from_reference: !<FileTransform> {src: srgb_inv.spi1d, interpolation: linear}

  - !<ColorSpace>
    name: VD16
    family: input
    equalitygroup:
    bitdepth: 16ui
    description: |
      The simple video conversion from a gamma 2.2 sRGB space
    isdata: false
    allocation: uniform
    to_reference: !<GroupTransform>
      children:
        - !<FileTransform> {src: vd16.spi1d, interpolation: nearest}

  - !<ColorSpace>
    name: Cineon
    family: input
    equalitygroup: ""
    bitdepth: 32f
    description: |
      Cineon (Log Film Scan)
    isdata: false
    allocation: uniform
    allocationvars: [-0.125, 1.125]
    to_reference: !<FileTransform> {src: cineon.spi1d, interpolation: linear}

  - !<ColorSpace>
    name: Panalog
    family: input
    equalitygroup: ""
    bitdepth: 32f
    description: |
      Sony/Panavision Genesis Log Space
    isdata: false
    allocation: uniform
    allocationvars: [-0.125, 1.125]
    to_reference: !<FileTransform> {src: panalog.spi1d, interpolation: linear}

  - !<ColorSpace>
    name: REDLog
    family: input
    equalitygroup: ""
    bitdepth: 32f
    description: |
      RED Log Space
    isdata: false
    allocation: uniform
    allocationvars: [-0.125, 1.125]
    to_reference: !<FileTransform> {src: redlog.spi1d, interpolation: linear}

  - !<ColorSpace>
    name: ViperLog
    family: input
    equalitygroup: ""
    bitdepth: 32f
    description: |
      Viper Log Space
    isdata: false
    allocation: uniform
    allocationvars: [-0.125, 1.125]
    to_reference: !<FileTransform> {src: viperlog.spi1d, interpolation: linear}

  - !<ColorSpace>
    name: AlexaV3LogC
    family: input
    equalitygroup: ""
    bitdepth: 32f
    description: |
      Alexa Log C
    isdata: false
    allocation: uniform
    allocationvars: [-0.125, 1.125]
    to_reference: !<FileTransform> {src: alexalogc.spi1d, interpolation: linear}

  - !<ColorSpace>
    name: PLogLin
    family: input
    equalitygroup: ""
    bitdepth: 32f
    description: |
      Josh Pines style pivoted log/lin conversion. 445->0.18
    isdata: false
    allocation: uniform
    allocationvars: [-0.125, 1.125]
    to_reference: !<FileTransform> {src: ploglin.spi1d, interpolation: linear}

  - !<ColorSpace>
    name: SLog
    family: input
    equalitygroup: ""
    bitdepth: 32f
    description: |
      Sony SLog
    isdata: false
    allocation: uniform
    allocationvars: [-0.125, 1.125]
    to_reference: !<FileTransform> {src: slog.spi1d, interpolation: linear}

  - !<ColorSpace>
    name: SLog1
    family: input
    equalitygroup: ""
    bitdepth: 32f
    description: |
      Sony SLog1
    isdata: false
    allocation: uniform
    allocationvars: [-0.125, 1.125]
    to_reference: !<FileTransform> {src: slog1.spi1d, interpolation: linear}

  - !<ColorSpace>
    name: SLog2
    family: input
    equalitygroup: ""
    bitdepth: 32f
    description: |
      Sony SLog2
    isdata: false
    allocation: uniform
    allocationvars: [-0.125, 1.125]
    to_reference: !<FileTransform> {src: slog2.spi1d, interpolation: linear}

  - !<ColorSpace>
    name: SLog3
    family: input
    equalitygroup: ""
    bitdepth: 32f
    description: |
      Sony SLog3
    isdata: false
    allocation: uniform
    allocationvars: [-0.125, 1.125]
    to_reference: !<FileTransform> {src: slog3.spi1d, interpolation: linear}

  - !<ColorSpace>
    name: CLog
    family: input
    equalitygroup: ""
    bitdepth: 32f
    description: |
      Canon CLog
    isdata: false
    allocation: uniform
    allocationvars: [-0.0684932, 1.08676]
    to_reference: !<FileTransform> {src: clog.spi1d, interpolation: linear}

  - !<ColorSpace>
    name: V-Log
    family: input
    equalitygroup: ""
    bitdepth: 32f
    description: |
      Panasonic V-Log
    isdata: false
    allocation: uniform
    allocationvars: [0, 1]
    to_reference: !<FileTransform> {src: vlog.spi1d, interpolation: linear}

# V-Log - V-Gamut from https://gist.github.com/sobotka/83dadc636e03b031bd89b4ebafce5a19
# Reference for the V-Gamut to REC.709 Matrix from 
# http://pro-av.panasonic.net/en/varicam/common/pdf/VARICAM_V-Log_V-Gamut.pdf

#  1.806576 -0.695697 -0.110879
# -0.170090  1.305955 -0.135865
# -0.025206 -0.154468  1.179674

  - !<ColorSpace>
    name: V-Log - V-Gamut
    family: input
    equalitygroup: ""
    bitdepth: 32f
    description: |
      Panasonic V-Log with V-Gamut
    isdata: false
    allocation: uniform
    allocationvars: [0, 1]
    to_reference: !<GroupTransform>
      children:
        - !<FileTransform> {src: vlog.spi1d, interpolation: linear}
        - !<MatrixTransform> {matrix: [1.806576, -0.695697, -0.110879, 0, -0.170090 , 1.305955, -0.135865, 0, -0.025206, -0.154468, 1.179674, 0, 0, 0, 0, 1]}

  - !<ColorSpace>
    name: Protune
    family: input
    equalitygroup: ""
    bitdepth: 32f
    description: |
      GoPro Protune
    isdata: false
    allocation: uniform
    allocationvars: [-0.125, 1.125]
    to_reference: !<FileTransform> {src: protune.spi1d, interpolation: linear}

  - !<ColorSpace>
    name: Non-Color
    family: raw
    description: |
        Color space used for images which contains non-color data (i,e, normal maps)
    equalitygroup:
    bitdepth: 32f
    isdata: true
    allocation: uniform
    allocationvars: [0, 1]

  - !<ColorSpace>
    name: p3dci8
    family: display
    equalitygroup:
    bitdepth: 8ui
    description: |
      p3dci8 :rgb display space for gamma 2.6 P3 projection.
    isdata: false
    allocation: uniform
    from_reference: !<GroupTransform>
      children:
        - !<ColorSpaceTransform> {src: Linear, dst: lg10}
        - !<FileTransform> {src: colorworks_filmlg_to_p3.3dl, interpolation: linear}

  - !<ColorSpace>
    name: Filmic Log
    family: input
    equalitygroup:
    bitdepth: 32f
    description: |
      Log based filmic shaper with 16.5 stops of latitude, and 25 stops of dynamic range.
    isdata: false
    allocation: lg2
    allocationvars: [-12.473931188, 12.526068812]
    from_reference: !<GroupTransform>
        children:
            - !<AllocationTransform> {allocation: lg2, vars: [-12.473931188, 12.526068812]}
            - !<FileTransform> {src: filmic_desat65cube.spi3d, interpolation: best}
            - !<AllocationTransform> {allocation: uniform, vars: [0, 0.66]}
    to_reference: !<AllocationTransform> {allocation: lg2, vars: [-12.473931188, 4.026068812], direction: inverse}

  - !<ColorSpace>
    name: Filmic sRGB
    family: display
    equalitygroup:
    bitdepth: 32f
    description: |
      Filmic sRGB view transform
    isdata: false
    allocation: lg2
    allocationvars: [-12.473931188, 12.526068812]
    from_reference: !<GroupTransform>
        children:
            - !<ColorSpaceTransform> {src: Linear, dst: Filmic Log}
            - !<FileTransform> {src: filmic_to_0-70_1-03.spi1d, interpolation: linear}

  - !<ColorSpace>
    name: False Color
    family: display
    equalitygroup:
    bitdepth: 32f
    description: |
      Filmic false color view transform
    isdata: false
    allocation: lg2
    allocationvars: [-12.473931188, 12.526068812]
    from_reference: !<GroupTransform>
        children:
            - !<ColorSpaceTransform> {src: Linear, dst: Filmic Log}
            - !<FileTransform> {src: filmic_false_color.spi3d, interpolation: best}
looks:
  - !<Look>
    name: Filmic - Very High Contrast
    process_space: Filmic Log
    transform: !<GroupTransform>
        children:
            - !<FileTransform> {src: filmic_to_1.20_1-00.spi1d, interpolation: linear}
            - !<FileTransform> {src: filmic_to_0-70_1-03.spi1d, interpolation: linear, direction: inverse}

  - !<Look>
    name: Filmic - High Contrast
    process_space: Filmic Log
    transform: !<GroupTransform>
        children:
            - !<FileTransform> {src: filmic_to_0.99_1-0075.spi1d, interpolation: linear}
            - !<FileTransform> {src: filmic_to_0-70_1-03.spi1d, interpolation: linear, direction: inverse}

  - !<Look>
    name: Filmic - Medium High Contrast
    process_space: Filmic Log
    transform: !<GroupTransform>
        children:
            - !<FileTransform> {src: filmic_to_0-85_1-011.spi1d, interpolation: best}
            - !<FileTransform> {src: filmic_to_0-70_1-03.spi1d, interpolation: linear, direction: inverse}

  - !<Look>
    name: Filmic - Base Contrast
    process_space: Filmic Log
    transform: !<GroupTransform>
        children:

  - !<Look>
    name: Filmic - Medium Low Contrast
    process_space: Filmic Log
    transform: !<GroupTransform>
        children:
            - !<FileTransform> {src: filmic_to_0-60_1-04.spi1d, interpolation: linear}
            - !<FileTransform> {src: filmic_to_0-70_1-03.spi1d, interpolation: linear, direction: inverse}

  - !<Look>
    name: Filmic - Low Contrast
    process_space: Filmic Log
    transform: !<GroupTransform>
        children:
            - !<FileTransform> {src: filmic_to_0-48_1-09.spi1d, interpolation: linear}
            - !<FileTransform> {src: filmic_to_0-70_1-03.spi1d, interpolation: linear, direction: inverse}

  - !<Look>
    name: Filmic - Very Low Contrast
    process_space: Filmic Log
    transform: !<GroupTransform>
        children:
            - !<FileTransform> {src: filmic_to_0-35_1-30.spi1d, interpolation: linear}
            - !<FileTransform> {src: filmic_to_0-70_1-03.spi1d, interpolation: linear, direction: inverse}

  - !<Look>
    name: Agfa Agfacolor Futura 100
    process_space: linear
    transform: !<GroupTransform>
      children:
        - !<FileTransform> {src: film_response/agfa_agfacolor_futura_100.spi1d, interpolation: linear}
        - !<FileTransform> {src: srgb.spi1d, interpolation: linear}

  - !<Look>
    name: Agfa Agfacolor Futura 200
    process_space: linear
    transform: !<GroupTransform>
      children:
        - !<FileTransform> {src: film_response/agfa_agfacolor_futura_200.spi1d, interpolation: linear}
        - !<FileTransform> {src: srgb.spi1d, interpolation: linear}

  - !<Look>
    name: Agfa Agfacolor Futura 400
    process_space: linear
    transform: !<GroupTransform>
      children:
        - !<FileTransform> {src: film_response/agfa_agfacolor_futura_400.spi1d, interpolation: linear}
        - !<FileTransform> {src: srgb.spi1d, interpolation: linear}

  - !<Look>
    name: Agfa Agfacolor Futura II 100
    process_space: linear
    transform: !<GroupTransform>
      children:
        - !<FileTransform> {src: film_response/agfa_agfacolor_futura_ii_100.spi1d, interpolation: linear}
        - !<FileTransform> {src: srgb.spi1d, interpolation: linear}

  - !<Look>
    name: Agfa Agfacolor Futura II 200
    process_space: linear
    transform: !<GroupTransform>
      children:
        - !<FileTransform> {src: film_response/agfa_agfacolor_futura_ii_200.spi1d, interpolation: linear}
        - !<FileTransform> {src: srgb.spi1d, interpolation: linear}

  - !<Look>
    name: Agfa Agfacolor Futura II 400
    process_space: linear
    transform: !<GroupTransform>
      children:
        - !<FileTransform> {src: film_response/agfa_agfacolor_futura_ii_400.spi1d, interpolation: linear}
        - !<FileTransform> {src: srgb.spi1d, interpolation: linear}

  - !<Look>
    name: Agfa Agfacolor HDC 100 plus
    process_space: linear
    transform: !<GroupTransform>
      children:
        - !<FileTransform> {src: film_response/agfa_agfacolor_hdc_100_plus.spi1d, interpolation: linear}
        - !<FileTransform> {src: srgb.spi1d, interpolation: linear}

  - !<Look>
    name: Agfa Agfacolor HDC 400 plus
    process_space: linear
    transform: !<GroupTransform>
      children:
        - !<FileTransform> {src: film_response/agfa_agfacolor_hdc_400_plus.spi1d, interpolation: linear}
        - !<FileTransform> {src: srgb.spi1d, interpolation: linear}

  - !<Look>
    name: Agfa Agfacolor HDC 200 plus
    process_space: linear
    transform: !<GroupTransform>
      children:
        - !<FileTransform> {src: film_response/agfa_agfacolor_hdc_200_plus.spi1d, interpolation: linear}
        - !<FileTransform> {src: srgb.spi1d, interpolation: linear}

  - !<Look>
    name: Agfa Agfacolor Optima II 100
    process_space: linear
    transform: !<GroupTransform>
      children:
        - !<FileTransform> {src: film_response/agfa_agfacolor_optima_ii_100.spi1d, interpolation: linear}
        - !<FileTransform> {src: srgb.spi1d, interpolation: linear}

  - !<Look>
    name: Agfa Agfacolor Optima II 200
    process_space: linear
    transform: !<GroupTransform>
      children:
        - !<FileTransform> {src: film_response/agfa_agfacolor_optima_ii_200.spi1d, interpolation: linear}
        - !<FileTransform> {src: srgb.spi1d, interpolation: linear}

  - !<Look>
    name: Agfa Agfacolor Ultra 050
    process_space: linear
    transform: !<GroupTransform>
      children:
        - !<FileTransform> {src: film_response/agfa_agfacolor_ultra_050.spi1d, interpolation: linear}
        - !<FileTransform> {src: srgb.spi1d, interpolation: linear}

  - !<Look>
    name: Agfa Agfacolor Vista 100
    process_space: linear
    transform: !<GroupTransform>
      children:
        - !<FileTransform> {src: film_response/agfa_agfacolor_vista_100.spi1d, interpolation: linear}
        - !<FileTransform> {src: srgb.spi1d, interpolation: linear}

  - !<Look>
    name: Agfa Agfacolor Vista 200
    process_space: linear
    transform: !<GroupTransform>
      children:
        - !<FileTransform> {src: film_response/agfa_agfacolor_vista_200.spi1d, interpolation: linear}
        - !<FileTransform> {src: srgb.spi1d, interpolation: linear}

  - !<Look>
    name: Agfa Agfacolor Vista 400
    process_space: linear
    transform: !<GroupTransform>
      children:
        - !<FileTransform> {src: film_response/agfa_agfacolor_vista_400.spi1d, interpolation: linear}
        - !<FileTransform> {src: srgb.spi1d, interpolation: linear}

  - !<Look>
    name: Agfa Agfacolor Vista 800
    process_space: linear
    transform: !<GroupTransform>
      children:
        - !<FileTransform> {src: film_response/agfa_agfacolor_vista_800.spi1d, interpolation: linear}
        - !<FileTransform> {src: srgb.spi1d, interpolation: linear}

  - !<Look>
    name: Agfa Agfachrome CT Precisa 100
    process_space: linear
    transform: !<GroupTransform>
      children:
        - !<FileTransform> {src: film_response/agfa_agfachrome_ct_precisa_100.spi1d, interpolation: linear}
        - !<FileTransform> {src: srgb.spi1d, interpolation: linear}

  - !<Look>
    name: Agfa Agfachrome CT Precisa 200
    process_space: linear
    transform: !<GroupTransform>
      children:
        - !<FileTransform> {src: film_response/agfa_agfachrome_ct_precisa_200.spi1d, interpolation: linear}
        - !<FileTransform> {src: srgb.spi1d, interpolation: linear}

  - !<Look>
    name: Agfa Agfachrome RSX2 050
    process_space: linear
    transform: !<GroupTransform>
      children:
        - !<FileTransform> {src: film_response/agfa_agfachrome_rsx2_050.spi1d, interpolation: linear}
        - !<FileTransform> {src: srgb.spi1d, interpolation: linear}

  - !<Look>
    name: Agfa Agfachrome RSX2 100
    process_space: linear
    transform: !<GroupTransform>
      children:
        - !<FileTransform> {src: film_response/agfa_agfachrome_rsx2_100.spi1d, interpolation: linear}
        - !<FileTransform> {src: srgb.spi1d, interpolation: linear}

  - !<Look>
    name: Agfa Agfachrome RSX2 200
    process_space: linear
    transform: !<GroupTransform>
      children:
        - !<FileTransform> {src: film_response/agfa_agfachrome_rsx2_200.spi1d, interpolation: linear}
        - !<FileTransform> {src: srgb.spi1d, interpolation: linear}

  - !<Look>
    name: Agfa Advantix 100
    process_space: linear
    transform: !<GroupTransform>
      children:
        - !<FileTransform> {src: film_response/agfa_advantix_100.spi1d, interpolation: linear}
        - !<FileTransform> {src: srgb.spi1d, interpolation: linear}

  - !<Look>
